static/img/services/google-cloud.svg

<svg width="180" height="28" viewBox="0 0 180 28" fill="none" xmlns="http://www.w3.org/2000/svg">
<path d="M21.6688 7.34211H22.6793L25.5592 4.46222L25.7007 3.23954C24.0509 1.78338 22.0571 0.771844 19.9077 0.300474C17.7583 -0.170897 15.5242 -0.086538 13.4165 0.545583C11.3087 1.1777 9.39692 2.33672 7.86165 3.91314C6.32638 5.48956 5.21833 7.43134 4.64217 9.55507C4.96301 9.42356 5.3184 9.40224 5.65266 9.49444L11.4124 8.54458C11.4124 8.54458 11.7055 8.05955 11.857 8.08986C13.0912 6.73447 14.7967 5.90206 16.6245 5.76305C18.4523 5.62404 20.2641 6.18894 21.6891 7.34211H21.6688Z" fill="white"/>
<path d="M29.6618 9.55507C28.9998 7.11741 27.6407 4.92599 25.7512 3.24965L21.7093 7.29159C22.5516 7.97989 23.2267 8.8505 23.6836 9.83774C24.1405 10.825 24.3672 11.9031 24.3466 12.9907V13.7082C24.819 13.7082 25.2868 13.8012 25.7233 13.982C26.1597 14.1628 26.5563 14.4278 26.8903 14.7618C27.2244 15.0958 27.4893 15.4924 27.6701 15.9289C27.8509 16.3653 27.944 16.8331 27.944 17.3055C27.944 17.7779 27.8509 18.2457 27.6701 18.6821C27.4893 19.1186 27.2244 19.5151 26.8903 19.8492C26.5563 20.1832 26.1597 20.4482 25.7233 20.629C25.2868 20.8098 24.819 20.9028 24.3466 20.9028H17.152L16.4345 21.6304V25.9451L17.152 26.6626H24.3466C26.3557 26.6782 28.3165 26.0468 29.9389 24.8617C31.5613 23.6765 32.7591 22.0007 33.3552 20.082C33.9513 18.1634 33.914 16.1038 33.2489 14.2079C32.5837 12.3121 31.326 10.6807 29.6618 9.55507Z" fill="white" fill-opacity="0.7"/>
<path d="M9.94722 26.6222H17.1419V20.8624H9.94722C9.43464 20.8623 8.92806 20.752 8.46181 20.539L7.45133 20.8523L4.55124 23.7322L4.29861 24.7427C5.92492 25.9707 7.90936 26.631 9.94722 26.6222Z" fill="white" fill-opacity="0.9"/>
<path d="M9.94722 7.9383C7.99782 7.94994 6.10072 8.57016 4.52091 9.71231C2.9411 10.8545 1.75747 12.4615 1.13532 14.309C0.513185 16.1565 0.483609 18.1522 1.05073 20.0173C1.61785 21.8825 2.75334 23.5239 4.29861 24.7123L8.47191 20.539C7.94157 20.2994 7.47728 19.9347 7.11888 19.4762C6.76047 19.0178 6.51865 18.4792 6.41416 17.9067C6.30967 17.3342 6.34564 16.7449 6.51897 16.1893C6.6923 15.6338 6.99783 15.1286 7.40933 14.7171C7.82084 14.3056 8.32603 14 8.88157 13.8267C9.43712 13.6534 10.0264 13.6174 10.5989 13.7219C11.1714 13.8264 11.71 14.0682 12.1685 14.4266C12.627 14.785 12.9917 15.2493 13.2313 15.7797L17.4046 11.6064C16.5287 10.4612 15.3997 9.53426 14.106 8.89793C12.8123 8.2616 11.3889 7.93316 9.94722 7.9383Z" fill="white" fill-opacity="0.8"/>
<path d="M52.9332 22.6004C51.6945 22.6162 50.4654 22.3818 49.3194 21.9113C48.1734 21.4407 47.1342 20.7437 46.264 19.862C45.3664 19.0177 44.6541 17.9961 44.1723 16.8619C43.6904 15.7278 43.4496 14.5058 43.465 13.2737C43.4502 12.0416 43.6913 10.8198 44.1731 9.68576C44.655 8.55169 45.3669 7.52998 46.264 6.68531C47.13 5.79446 48.1673 5.08812 49.3134 4.60881C50.4596 4.1295 51.6909 3.88716 52.9332 3.89637C54.117 3.88059 55.292 4.10027 56.3901 4.54262C57.4882 4.98498 58.4874 5.64119 59.3296 6.47311L57.5309 8.30208C56.2992 7.11168 54.646 6.45769 52.9332 6.48321C52.0447 6.4723 51.1637 6.64633 50.3461 6.99426C49.5285 7.34218 48.7922 7.85638 48.184 8.50418C47.5519 9.13126 47.0532 9.87978 46.7181 10.7047C46.3829 11.5296 46.2181 12.4137 46.2337 13.304C46.2263 14.1841 46.395 15.0567 46.73 15.8706C47.0649 16.6845 47.5593 17.4232 48.184 18.0432C49.4353 19.2902 51.1239 19.9996 52.8904 20.0204C54.6569 20.0411 56.3618 19.3716 57.6421 18.1543C58.4347 17.2863 58.921 16.1824 59.0265 15.0117H52.9636V12.4249H61.5426C61.6269 12.9458 61.6607 13.4737 61.6436 14.0012C61.697 15.093 61.5284 16.1842 61.148 17.2089C60.7676 18.2336 60.1834 19.1706 59.4307 19.9631C58.5937 20.8345 57.5825 21.5197 56.463 21.9741C55.3435 22.4286 54.1408 22.642 52.9332 22.6004ZM72.8802 20.8826C71.7289 21.9863 70.1957 22.6024 68.6008 22.6024C67.0059 22.6024 65.4727 21.9863 64.3214 20.8826C63.7483 20.327 63.297 19.6583 62.9961 18.919C62.6952 18.1797 62.5512 17.386 62.5733 16.5881C62.5518 15.7902 62.6961 14.9967 62.997 14.2575C63.2979 13.5182 63.7488 12.8495 64.3214 12.2935C65.4739 11.1922 67.0067 10.5776 68.6008 10.5776C70.1949 10.5776 71.7277 11.1922 72.8802 12.2935C73.4528 12.8495 73.9037 13.5182 74.2046 14.2575C74.5055 14.9967 74.6498 15.7902 74.6283 16.5881C74.6491 17.3867 74.5035 18.1809 74.2009 18.9202C73.8982 19.6596 73.445 20.3279 72.8701 20.8826H72.8802ZM66.211 19.1951C66.5172 19.5222 66.8874 19.7829 67.2984 19.9611C67.7095 20.1393 68.1528 20.2313 68.6008 20.2313C69.0488 20.2313 69.4921 20.1393 69.9032 19.9611C70.3142 19.7829 70.6844 19.5222 70.9906 19.1951C71.3245 18.85 71.5859 18.4415 71.7595 17.9938C71.933 17.546 72.0152 17.0681 72.0011 16.5881C72.016 16.1064 71.9342 15.6267 71.7607 15.1772C71.5871 14.7277 71.3253 14.3175 70.9906 13.9709C70.6803 13.6472 70.3077 13.3896 69.8953 13.2137C69.4829 13.0377 69.0391 12.947 68.5907 12.947C68.1423 12.947 67.6985 13.0377 67.2861 13.2137C66.8737 13.3896 66.5011 13.6472 66.1908 13.9709C65.8561 14.3175 65.5943 14.7277 65.4207 15.1772C65.2472 15.6267 65.1654 16.1064 65.1803 16.5881C65.1675 17.0688 65.2513 17.5472 65.4266 17.9949C65.6019 18.4427 65.8652 18.8508 66.2009 19.1951H66.211ZM86.0367 20.8826C84.8854 21.9863 83.3522 22.6024 81.7573 22.6024C80.1624 22.6024 78.6292 21.9863 77.4779 20.8826C76.9049 20.327 76.4535 19.6583 76.1526 18.919C75.8517 18.1797 75.7077 17.386 75.7298 16.5881C75.7083 15.7902 75.8526 14.9967 76.1535 14.2575C76.4544 13.5182 76.9053 12.8495 77.4779 12.2935C78.6292 11.1899 80.1624 10.5737 81.7573 10.5737C83.3522 10.5737 84.8854 11.1899 86.0367 12.2935C86.6093 12.8495 87.0603 13.5182 87.3612 14.2575C87.6621 14.9967 87.8063 15.7902 87.7848 16.5881C87.8069 17.386 87.6629 18.1797 87.362 18.919C87.0611 19.6583 86.6098 20.327 86.0367 20.8826ZM79.3675 19.1951C79.6737 19.5222 80.0439 19.7829 80.4549 19.9611C80.866 20.1393 81.3093 20.2313 81.7573 20.2313C82.2053 20.2313 82.6486 20.1393 83.0597 19.9611C83.4708 19.7829 83.8409 19.5222 84.1471 19.1951C84.481 18.85 84.7425 18.4415 84.916 17.9938C85.0895 17.546 85.1717 17.0681 85.1576 16.5881C85.1725 16.1064 85.0907 15.6267 84.9172 15.1772C84.7436 14.7277 84.4818 14.3175 84.1471 13.9709C83.8368 13.6472 83.4642 13.3896 83.0518 13.2137C82.6394 13.0377 82.1956 12.947 81.7472 12.947C81.2988 12.947 80.855 13.0377 80.4426 13.2137C80.0302 13.3896 79.6576 13.6472 79.3473 13.9709C79.0126 14.3175 78.7508 14.7277 78.5772 15.1772C78.4037 15.6267 78.3219 16.1064 78.3368 16.5881C78.324 17.0688 78.4078 17.5472 78.5831 17.9949C78.7584 18.4427 79.0217 18.8508 79.3574 19.1951H79.3675ZM94.6865 27.9964C93.4753 28.035 92.2876 27.6569 91.3215 26.9253C90.4638 26.2805 89.7883 25.4239 89.3612 24.4395L91.6651 23.4796C91.9158 24.0679 92.3081 24.5851 92.807 24.9852C93.3409 25.4156 94.011 25.6414 94.6966 25.6218C95.1313 25.6482 95.5666 25.5807 95.9729 25.4238C96.3792 25.2668 96.7469 25.0242 97.051 24.7124C97.6598 23.978 97.9604 23.0364 97.8897 22.0851V21.2161H97.7988C97.4137 21.6734 96.9274 22.0348 96.3784 22.2716C95.8294 22.5084 95.2328 22.614 94.6359 22.5802C93.8773 22.5825 93.1264 22.4275 92.4306 22.1248C91.7349 21.8222 91.1096 21.3786 90.594 20.822C90.0346 20.2698 89.593 19.6099 89.296 18.8822C88.999 18.1544 88.8527 17.374 88.8661 16.5881C88.8521 15.7976 88.998 15.0124 89.2949 14.2796C89.5918 13.5469 90.0337 12.8816 90.594 12.3238C91.1083 11.7649 91.7332 11.3191 92.429 11.0146C93.1249 10.7102 93.8764 10.5538 94.6359 10.5555C95.2787 10.5543 95.9137 10.6958 96.4952 10.9698C96.9983 11.1894 97.4468 11.5172 97.8089 11.9297H97.8998V10.9698H100.406V21.7314C100.472 22.5827 100.363 23.4386 100.087 24.2465C99.8108 25.0544 99.3725 25.7975 98.7991 26.4302C98.253 26.9527 97.6076 27.3605 96.9013 27.6295C96.1949 27.8985 95.4418 28.0233 94.6865 27.9964ZM94.8683 20.2359C95.2998 20.2454 95.7281 20.1598 96.1228 19.9851C96.5175 19.8105 96.8689 19.5511 97.152 19.2254C97.7755 18.511 98.1042 17.5863 98.0716 16.6386C98.109 15.6749 97.7805 14.7327 97.152 14.0012C96.8693 13.675 96.518 13.4152 96.1232 13.2405C95.7284 13.0658 95.2999 12.9805 94.8683 12.9907C94.4251 12.9816 93.9849 13.067 93.5772 13.2413C93.1695 13.4155 92.8036 13.6746 92.5038 14.0012C91.8354 14.7064 91.4723 15.6469 91.4933 16.6184C91.483 17.0949 91.567 17.5687 91.7404 18.0126C91.9139 18.4566 92.1733 18.8619 92.5038 19.2052C92.8022 19.535 93.1674 19.7975 93.5751 19.9752C93.9828 20.153 94.4236 20.2418 94.8683 20.2359ZM104.862 4.57339V22.2367H102.225V4.57339H104.862ZM112.097 22.6004C111.307 22.6207 110.522 22.4778 109.79 22.1804C109.058 21.8831 108.395 21.4378 107.843 20.8725C107.283 20.3113 106.843 19.6422 106.549 18.9057C106.256 18.1692 106.115 17.3807 106.135 16.5881C106.105 15.7935 106.236 15.0011 106.519 14.258C106.802 13.515 107.231 12.8366 107.782 12.2632C108.301 11.716 108.929 11.2832 109.625 10.9926C110.321 10.702 111.07 10.56 111.824 10.5757C112.518 10.5684 113.205 10.7024 113.845 10.9698C114.422 11.2024 114.947 11.5457 115.391 11.9802C115.773 12.3486 116.112 12.7588 116.402 13.2029C116.636 13.5779 116.836 13.9737 116.998 14.3852L117.271 15.0723L109.187 18.3968C109.431 18.9586 109.84 19.433 110.36 19.7577C110.879 20.0824 111.485 20.2421 112.097 20.2157C112.693 20.2173 113.278 20.0646 113.797 19.7724C114.316 19.4802 114.75 19.0585 115.058 18.5484L117.079 19.9126C116.563 20.6504 115.903 21.2761 115.139 21.7516C114.23 22.326 113.172 22.6211 112.097 22.6004ZM108.722 16.4062L114.098 14.173C113.932 13.7792 113.636 13.4545 113.259 13.2535C112.837 13.0151 112.359 12.8931 111.875 12.8998C111.052 12.9211 110.272 13.2661 109.702 13.8597C109.361 14.1859 109.097 14.5832 108.927 15.0234C108.758 15.4636 108.688 15.9357 108.722 16.4062Z" fill="white"/>
<path d="M131.084 22.6004C129.962 22.6198 128.849 22.4123 127.809 21.9904C126.77 21.5685 125.826 20.941 125.035 20.1454C124.244 19.3498 123.622 18.4026 123.207 17.3607C122.791 16.3187 122.59 15.2035 122.616 14.082C122.59 12.9605 122.791 11.8453 123.207 10.8034C123.622 9.76147 124.244 8.81428 125.035 8.01869C125.826 7.2231 126.77 6.59553 127.809 6.17365C128.849 5.75177 129.962 5.54429 131.084 5.56365C132.219 5.52815 133.348 5.74965 134.386 6.21159C135.423 6.67353 136.343 7.36397 137.076 8.23133L135.621 9.64601C135.083 8.96887 134.392 8.42836 133.606 8.06841C132.819 7.70846 131.959 7.53924 131.094 7.57451C130.262 7.55577 129.435 7.70544 128.662 8.01454C127.889 8.32363 127.187 8.78577 126.598 9.37318C125.985 9.98959 125.506 10.7261 125.191 11.5364C124.876 12.3468 124.732 13.2135 124.769 14.082C124.732 14.9506 124.876 15.8173 125.191 16.6276C125.506 17.438 125.985 18.1745 126.598 18.7909C127.187 19.3783 127.889 19.8404 128.662 20.1495C129.435 20.4586 130.262 20.6083 131.094 20.5896C132.06 20.6004 133.016 20.3934 133.89 19.9841C134.765 19.5747 135.536 18.9734 136.147 18.225L137.602 19.6801C136.84 20.5912 135.883 21.3197 134.803 21.8122C133.638 22.3501 132.367 22.6194 131.084 22.6004Z" fill="white"/>
<path d="M141.512 22.2367H139.421V5.91733H141.512V22.2367Z" fill="white"/>
<path d="M144.928 12.4147C146.024 11.3262 147.506 10.7154 149.051 10.7154C150.595 10.7154 152.077 11.3262 153.173 12.4147C153.709 12.9806 154.128 13.6469 154.406 14.3753C154.683 15.1037 154.814 15.8797 154.79 16.6588C154.814 17.4378 154.683 18.2139 154.406 18.9423C154.128 19.6706 153.709 20.3369 153.173 20.9028C152.077 21.9913 150.595 22.6022 149.051 22.6022C147.506 22.6022 146.024 21.9913 144.928 20.9028C144.392 20.3369 143.973 19.6706 143.696 18.9423C143.418 18.2139 143.287 17.4378 143.311 16.6588C143.287 15.8797 143.418 15.1037 143.696 14.3753C143.973 13.6469 144.392 12.9806 144.928 12.4147ZM146.484 19.5892C146.813 19.9375 147.211 20.2149 147.651 20.4045C148.091 20.5941 148.566 20.6919 149.045 20.6919C149.525 20.6919 149.999 20.5941 150.44 20.4045C150.88 20.2149 151.277 19.9375 151.607 19.5892C151.973 19.1969 152.257 18.7357 152.442 18.2326C152.628 17.7295 152.711 17.1945 152.688 16.6588C152.711 16.123 152.628 15.588 152.442 15.0849C152.257 14.5818 151.973 14.1207 151.607 13.7284C151.277 13.3801 150.88 13.1026 150.44 12.913C149.999 12.7234 149.525 12.6257 149.045 12.6257C148.566 12.6257 148.091 12.7234 147.651 12.913C147.211 13.1026 146.813 13.3801 146.484 13.7284C146.118 14.1207 145.834 14.5818 145.649 15.0849C145.463 15.588 145.38 16.123 145.403 16.6588C145.382 17.1936 145.468 17.7271 145.655 18.2284C145.843 18.7297 146.128 19.1888 146.494 19.5791L146.484 19.5892Z" fill="white"/>
<path d="M166.38 22.2367H164.359V20.6906H164.299C163.939 21.2778 163.43 21.759 162.823 22.0851C162.194 22.4499 161.479 22.6416 160.752 22.6409C160.161 22.6813 159.569 22.5877 159.02 22.3673C158.47 22.1468 157.978 21.8051 157.579 21.3676C156.814 20.3994 156.429 19.1845 156.498 17.9522V11.0809H158.59V17.5682C158.59 19.6498 159.509 20.6906 161.348 20.6906C161.757 20.7034 162.163 20.6183 162.532 20.4425C162.901 20.2668 163.222 20.0054 163.47 19.6801C164.012 18.993 164.301 18.1402 164.289 17.2651V11.0809H166.38V22.2367Z" fill="white"/>
<path d="M173.484 22.6004C172.774 22.6028 172.073 22.4513 171.427 22.1565C170.782 21.8617 170.208 21.4306 169.745 20.8927C168.698 19.7356 168.137 18.2191 168.179 16.6588C168.137 15.0985 168.698 13.5819 169.745 12.4248C170.208 11.887 170.782 11.4558 171.427 11.161C172.073 10.8662 172.774 10.7148 173.484 10.7171C174.279 10.7046 175.064 10.8922 175.768 11.2628C176.386 11.5738 176.909 12.0449 177.283 12.6269H177.374L177.283 11.0809V5.91733H179.375V22.2367H177.354V20.6906H177.263C176.889 21.2727 176.366 21.7437 175.748 22.0548C175.05 22.422 174.272 22.6096 173.484 22.6004ZM173.828 20.6906C174.3 20.6975 174.769 20.6038 175.203 20.4156C175.637 20.2274 176.026 19.9492 176.344 19.5993C177.054 18.7902 177.417 17.7337 177.354 16.6588C177.417 15.5838 177.054 14.5273 176.344 13.7183C176.024 13.3665 175.634 13.0854 175.199 12.8931C174.764 12.7008 174.293 12.6014 173.818 12.6014C173.342 12.6014 172.871 12.7008 172.436 12.8931C172.001 13.0854 171.611 13.3665 171.291 13.7183C170.938 14.1162 170.667 14.5799 170.494 15.0828C170.321 15.5856 170.248 16.1178 170.281 16.6487C170.248 17.1796 170.321 17.7117 170.494 18.2146C170.667 18.7175 170.938 19.1811 171.291 19.5791C171.61 19.9352 172.001 20.2188 172.439 20.4106C172.876 20.6023 173.35 20.6979 173.828 20.6906Z" fill="white"/>
</svg>

<svg width="180" height="28" fill="none" xmlns="http://www.w3.org/2000/svg"><path d="M21.669 7.342h1.01l2.88-2.88.142-1.222A12.945 12.945 0 0 0 4.642 9.555c.321-.131.676-.153 1.01-.06l5.76-.95s.293-.485.445-.455a7.185 7.185 0 0 1 9.832-.748h-.02Z" fill="#fff"/><path d="M29.662 9.555a12.975 12.975 0 0 0-3.91-6.305l-4.043 4.042a7.186 7.186 0 0 1 2.638 5.699v.717a3.598 3.598 0 1 1 0 7.195h-7.195l-.718.727v4.315l.718.718h7.195a9.358 9.358 0 0 0 5.315-17.108Z" fill="#fff" fill-opacity=".7"/><path d="M9.947 26.622h7.195v-5.76H9.947c-.512 0-1.019-.11-1.485-.323l-1.01.313-2.9 2.88-.253 1.01a9.307 9.307 0 0 0 5.648 1.88Z" fill="#fff" fill-opacity=".9"/><path d="M9.947 7.938A9.357 9.357 0 0 0 4.3 24.712l4.173-4.173a3.597 3.597 0 1 1 4.76-4.76l4.173-4.173a9.346 9.346 0 0 0-7.458-3.668Z" fill="#fff" fill-opacity=".8"/><path d="M52.933 22.6a9.206 9.206 0 0 1-6.669-2.738 8.891 8.891 0 0 1-2.799-6.588 8.902 8.902 0 0 1 2.799-6.589 9.207 9.207 0 0 1 6.67-2.789 8.933 8.933 0 0 1 6.396 2.577l-1.8 1.83a6.477 6.477 0 0 0-4.597-1.82 6.406 6.406 0 0 0-4.749 2.021 6.597 6.597 0 0 0-1.95 4.8 6.597 6.597 0 0 0 1.95 4.74 6.78 6.78 0 0 0 9.458.11 5.376 5.376 0 0 0 1.384-3.142h-6.062v-2.587h8.579c.084.52.118 1.049.1 1.576a8.082 8.082 0 0 1-2.212 5.962 8.6 8.6 0 0 1-6.498 2.637Zm19.947-1.717a6.184 6.184 0 0 1-8.559 0 5.758 5.758 0 0 1-1.748-4.295 5.77 5.77 0 0 1 1.748-4.295 6.194 6.194 0 0 1 8.56 0 5.768 5.768 0 0 1 1.747 4.295 5.76 5.76 0 0 1-1.758 4.295h.01Zm-6.669-1.688a3.273 3.273 0 0 0 4.78 0A3.599 3.599 0 0 0 72 16.588a3.608 3.608 0 0 0-1.01-2.617 3.324 3.324 0 0 0-4.8 0 3.607 3.607 0 0 0-1.01 2.617 3.596 3.596 0 0 0 1.02 2.607h.01Zm19.826 1.688a6.184 6.184 0 0 1-8.56 0 5.76 5.76 0 0 1-1.747-4.295 5.77 5.77 0 0 1 1.748-4.295 6.184 6.184 0 0 1 8.559 0 5.769 5.769 0 0 1 1.748 4.295 5.76 5.76 0 0 1-1.748 4.295Zm-6.67-1.688a3.273 3.273 0 0 0 4.78 0 3.597 3.597 0 0 0 1.01-2.607 3.608 3.608 0 0 0-1.01-2.617 3.324 3.324 0 0 0-4.8 0 3.607 3.607 0 0 0-1.01 2.617 3.596 3.596 0 0 0 1.02 2.607h.01Zm15.32 8.801a5.294 5.294 0 0 1-3.365-1.07 6.194 6.194 0 0 1-1.96-2.486l2.303-.96a3.88 3.88 0 0 0 1.142 1.505 2.88 2.88 0 0 0 1.89.637 3.033 3.033 0 0 0 2.354-.91c.609-.734.91-1.676.839-2.627v-.869h-.091a3.851 3.851 0 0 1-3.163 1.364 5.486 5.486 0 0 1-4.042-1.758 5.811 5.811 0 0 1-1.728-4.234 5.87 5.87 0 0 1 1.728-4.264 5.478 5.478 0 0 1 4.042-1.768 4.343 4.343 0 0 1 1.86.414c.502.22.95.547 1.313.96h.09v-.96h2.507V21.73a6.28 6.28 0 0 1-1.607 4.7 5.658 5.658 0 0 1-4.113 1.565Zm.181-7.76a2.94 2.94 0 0 0 2.284-1.01c.623-.715.952-1.64.92-2.587a3.82 3.82 0 0 0-.92-2.638 2.93 2.93 0 0 0-2.284-1.01A3.122 3.122 0 0 0 92.504 14a3.689 3.689 0 0 0-1.01 2.617 3.617 3.617 0 0 0 1.01 2.587 3.133 3.133 0 0 0 2.364 1.03Zm9.994-15.663v17.664h-2.637V4.573h2.637Zm7.235 18.027a5.736 5.736 0 0 1-4.254-1.728 5.86 5.86 0 0 1-1.708-4.284 5.92 5.92 0 0 1 1.647-4.325 5.417 5.417 0 0 1 4.042-1.687 5.1 5.1 0 0 1 2.021.394 4.748 4.748 0 0 1 1.546 1.01c.382.369.721.779 1.011 1.223.234.375.434.77.596 1.182l.273.687-8.084 3.325a3.025 3.025 0 0 0 2.91 1.819 3.444 3.444 0 0 0 2.961-1.668l2.021 1.365a6.666 6.666 0 0 1-1.94 1.839 5.497 5.497 0 0 1-3.042.848Zm-3.375-6.194 5.376-2.233a1.86 1.86 0 0 0-.839-.92c-.422-.238-.9-.36-1.384-.353a3.124 3.124 0 0 0-2.173.96 3.21 3.21 0 0 0-.98 2.546ZM131.084 22.6a8.326 8.326 0 0 1-8.468-8.518 8.322 8.322 0 0 1 2.419-6.063 8.333 8.333 0 0 1 6.049-2.455 7.542 7.542 0 0 1 5.992 2.667l-1.455 1.415a5.497 5.497 0 0 0-4.527-2.071 6.175 6.175 0 0 0-4.496 1.798 6.31 6.31 0 0 0-1.829 4.709 6.31 6.31 0 0 0 1.829 4.709 6.163 6.163 0 0 0 4.496 1.799 6.424 6.424 0 0 0 5.053-2.365l1.455 1.455a7.949 7.949 0 0 1-2.799 2.132 8.57 8.57 0 0 1-3.719.788ZM141.512 22.237h-2.091V5.917h2.091v16.32ZM144.928 12.415a5.85 5.85 0 0 1 8.245 0 5.913 5.913 0 0 1 1.617 4.244 5.913 5.913 0 0 1-1.617 4.244 5.85 5.85 0 0 1-8.245 0 5.903 5.903 0 0 1-1.617-4.244 5.903 5.903 0 0 1 1.617-4.244Zm1.556 7.174a3.524 3.524 0 0 0 5.123 0 4.038 4.038 0 0 0 1.081-2.93 4.038 4.038 0 0 0-1.081-2.93 3.535 3.535 0 0 0-2.562-1.103 3.525 3.525 0 0 0-2.561 1.102 4.038 4.038 0 0 0-1.081 2.93 4.038 4.038 0 0 0 1.091 2.921l-.01.01ZM166.38 22.237h-2.021V20.69h-.06a3.891 3.891 0 0 1-1.476 1.394 4.121 4.121 0 0 1-2.071.556 3.93 3.93 0 0 1-3.173-1.273 5.054 5.054 0 0 1-1.081-3.416v-6.871h2.092v6.487c0 2.082.919 3.123 2.758 3.123a2.566 2.566 0 0 0 2.122-1.01c.542-.688.831-1.54.819-2.416v-6.184h2.091v11.156ZM173.484 22.6a4.912 4.912 0 0 1-3.739-1.707 6.067 6.067 0 0 1-1.566-4.234 6.068 6.068 0 0 1 1.566-4.234 4.917 4.917 0 0 1 3.739-1.708 4.742 4.742 0 0 1 2.284.546 3.867 3.867 0 0 1 1.515 1.364h.091l-.091-1.546V5.917h2.092v16.32h-2.021V20.69h-.091a3.868 3.868 0 0 1-1.515 1.364 4.744 4.744 0 0 1-2.264.545Zm.344-1.91a3.335 3.335 0 0 0 2.516-1.09 4.095 4.095 0 0 0 1.01-2.941 4.095 4.095 0 0 0-1.01-2.94 3.414 3.414 0 0 0-5.053 0 4.033 4.033 0 0 0-1.01 2.93 4.043 4.043 0 0 0 1.01 2.93 3.34 3.34 0 0 0 2.537 1.112Z" fill="#fff"/></svg>
